elementary-icon-theme/elementary/status/16/aptdaemon-add.svg

<?xml version="1.0" encoding="UTF-8" standalone="no"?>
<!-- Created with Inkscape (http://www.inkscape.org/) -->

<svg
   xmlns:dc="http://purl.org/dc/elements/1.1/"
   xmlns:cc="http://creativecommons.org/ns#"
   xmlns:rdf="http://www.w3.org/1999/02/22-rdf-syntax-ns#"
   xmlns:svg="http://www.w3.org/2000/svg"
   xmlns="http://www.w3.org/2000/svg"
   xmlns:xlink="http://www.w3.org/1999/xlink"
   xmlns:sodipodi="http://sodipodi.sourceforge.net/DTD/sodipodi-0.dtd"
   xmlns:inkscape="http://www.inkscape.org/namespaces/inkscape"
   version="1.1"
   width="16"
   height="16"
   id="svg2907"
   inkscape:version="0.47 r22583"
   sodipodi:docname="aptdaemon-add.svg">
  <metadata
     id="metadata39">
    <rdf:RDF>
      <cc:Work
         rdf:about="">
        <dc:format>image/svg+xml</dc:format>
        <dc:type
           rdf:resource="http://purl.org/dc/dcmitype/StillImage" />
        <dc:title></dc:title>
      </cc:Work>
    </rdf:RDF>
  </metadata>
  <sodipodi:namedview
     pagecolor="#ffffff"
     bordercolor="#666666"
     borderopacity="1"
     objecttolerance="10"
     gridtolerance="10"
     guidetolerance="10"
     inkscape:pageopacity="0"
     inkscape:pageshadow="2"
     inkscape:window-width="640"
     inkscape:window-height="482"
     id="namedview37"
     showgrid="false"
     inkscape:zoom="14.75"
     inkscape:cx="-2.2372881"
     inkscape:cy="7.8644068"
     inkscape:window-x="0"
     inkscape:window-y="24"
     inkscape:window-maximized="0"
     inkscape:current-layer="svg2907" />
  <defs
     id="defs2909">
    <linearGradient
       id="linearGradient3054">
      <stop
         id="stop3056"
         style="stop-color:#ffffff;stop-opacity:1"
         offset="0" />
      <stop
         id="stop3058"
         style="stop-color:#ffffff;stop-opacity:1"
         offset="0.29462135" />
      <stop
         id="stop3060"
         style="stop-color:#ffffff;stop-opacity:0.6901961"
         offset="0.43371025" />
      <stop
         id="stop3062"
         style="stop-color:#ffffff;stop-opacity:0"
         offset="1" />
    </linearGradient>
    <linearGradient
       id="linearGradient3032">
      <stop
         id="stop3034"
         style="stop-color:#dac197;stop-opacity:1"
         offset="0" />
      <stop
         id="stop3036"
         style="stop-color:#c1a581;stop-opacity:1"
         offset="0.28352803" />
      <stop
         id="stop3038"
         style="stop-color:#dbc298;stop-opacity:1"
         offset="0.36018604" />
      <stop
         id="stop3040"
         style="stop-color:#a68b60;stop-opacity:1"
         offset="1" />
    </linearGradient>
    <linearGradient
       id="linearGradient3022">
      <stop
         id="stop3024"
         style="stop-color:#c9af8b;stop-opacity:1"
         offset="0" />
      <stop
         id="stop3026"
         style="stop-color:#ad8757;stop-opacity:1"
         offset="0.27982354" />
      <stop
         id="stop3028"
         style="stop-color:#c2a57f;stop-opacity:1"
         offset="0.3566308" />
      <stop
         id="stop3030"
         style="stop-color:#9d7d53;stop-opacity:1"
         offset="1" />
    </linearGradient>
    <linearGradient
       id="linearGradient3275">
      <stop
         id="stop3277"
         style="stop-color:#ffffff;stop-opacity:0"
         offset="0" />
      <stop
         id="stop3283"
         style="stop-color:#ffffff;stop-opacity:1"
         offset="0.245" />
      <stop
         id="stop3285"
         style="stop-color:#ffffff;stop-opacity:1"
         offset="0.77350003" />
      <stop
         id="stop3279"
         style="stop-color:#ffffff;stop-opacity:0"
         offset="1" />
    </linearGradient>
    <linearGradient
       id="linearGradient4559">
      <stop
         id="stop4561"
         style="stop-color:#ffffff;stop-opacity:0"
         offset="0" />
      <stop
         id="stop4563"
         style="stop-color:#ffffff;stop-opacity:0"
         offset="1" />
    </linearGradient>
    <linearGradient
       x1="44.994774"
       y1="17.5"
       x2="3.0052247"
       y2="17.5"
       id="linearGradient3009"
       xlink:href="#linearGradient3275"
       gradientUnits="userSpaceOnUse"
       gradientTransform="matrix(0.36595005,0,0,0.36097048,-0.7828015,-0.81698)"
       spreadMethod="reflect" />
    <linearGradient
       x1="23.451576"
       y1="30.554907"
       x2="43.00663"
       y2="45.934479"
       id="linearGradient3015"
       xlink:href="#linearGradient4559"
       gradientUnits="userSpaceOnUse"
       gradientTransform="matrix(0.46923034,0,0,0.4240274,-3.0041886,-3.4756141)" />
    <linearGradient
       x1="24.822832"
       y1="15.377745"
       x2="24.996943"
       y2="37.27668"
       id="linearGradient3018"
       xlink:href="#linearGradient3032"
       gradientUnits="userSpaceOnUse"
       gradientTransform="matrix(0.46923034,0,0,0.56212557,-3.0041886,-7.0808391)" />
    <linearGradient
       x1="15.464298"
       y1="7.9756851"
       x2="15.464298"
       y2="45.04248"
       id="linearGradient3020"
       xlink:href="#linearGradient3022"
       gradientUnits="userSpaceOnUse"
       gradientTransform="matrix(0.36595005,0,0,0.36097048,-0.7828015,-1.5613271)" />
    <linearGradient
       x1="26"
       y1="22"
       x2="26"
       y2="8"
       id="linearGradient3052"
       xlink:href="#linearGradient3054"
       gradientUnits="userSpaceOnUse"
       gradientTransform="matrix(0.49999973,0,0,0.49999987,-3.999993,-2.9999993)" />
    <linearGradient
       id="linearGradient3242-7">
      <stop
         offset="0"
         style="stop-color:#eef87e;stop-opacity:1"
         id="stop3244-5" />
      <stop
         offset="0.26238"
         style="stop-color:#cde34f;stop-opacity:1"
         id="stop3246-9" />
      <stop
         offset="0.66093999"
         style="stop-color:#93b723;stop-opacity:1"
         id="stop3248-7" />
      <stop
         offset="1"
         style="stop-color:#5a7e0d;stop-opacity:1"
         id="stop3250-8" />
    </linearGradient>
    <linearGradient
       id="linearGradient2490-3">
      <stop
         offset="0"
         style="stop-color:#365f0e;stop-opacity:1"
         id="stop2492-3" />
      <stop
         offset="1"
         style="stop-color:#84a718;stop-opacity:1"
         id="stop2494-8" />
    </linearGradient>
    <radialGradient
       r="31.000002"
       fy="51.694645"
       fx="69.447609"
       cy="51.694645"
       cx="69.447609"
       gradientTransform="matrix(0,0.25030935,-0.27259303,0,25.244726,-8.076711)"
       gradientUnits="userSpaceOnUse"
       id="radialGradient3088"
       xlink:href="#linearGradient3242-7"
       inkscape:collect="always" />
    <linearGradient
       y2="51.244411"
       x2="72.421684"
       y1="124.75623"
       x1="72.421684"
       gradientTransform="matrix(0.10408428,0,0,0.10482496,2.8405826,2.7754018)"
       gradientUnits="userSpaceOnUse"
       id="linearGradient3090"
       xlink:href="#linearGradient2490-3"
       inkscape:collect="always" />
  </defs>
  <g
     id="layer1">
    <path
       d="m 2.5146738,1.5069219 10.7946932,0 c 0.63016,0 0.913749,-0.103437 1.094759,0.360971 L 15.502611,5.5 l 0,8.523181 c 0,0.560696 0.03767,0.475028 -0.592497,0.475028 l -13.8202288,0 c -0.6301632,0 -0.5924964,0.08566 -0.5924964,-0.475028 l 0,-8.523181 1.098485,-3.6321071 c 0.1759604,-0.455026 0.2886367,-0.360971 0.9188,-0.360971 z"
       id="path2488"
       style="fill:url(#linearGradient3018);fill-opacity:1;fill-rule:nonzero;stroke:url(#linearGradient3020);stroke-width:0.99420077;stroke-linecap:round;stroke-linejoin:miter;stroke-miterlimit:4;stroke-opacity:1;stroke-dasharray:none;stroke-dashoffset:0;marker:none;visibility:visible;display:block;overflow:visible" />
    <path
       d="m 2.8577405,1.8725639 10.1195695,0 c 0.590751,0 0.956367,0.200895 1.203801,0.752996 l 0.852275,2.317329 0,8.3545021 c 0,0.527261 -0.299624,0.792722 -0.890376,0.792722 l -12.3446678,0 c -0.5907508,0 -0.8317226,-0.291963 -0.8317226,-0.819224 l 0,-8.3280001 0.8247823,-2.367013 c 0.1649564,-0.427891 0.4755865,-0.703312 1.0663386,-0.703312 z"
       id="path2490"
       style="opacity:0.50549454;fill:none;stroke:url(#linearGradient3015);stroke-width:0.74211526;stroke-linecap:butt;stroke-linejoin:miter;stroke-miterlimit:4;stroke-opacity:1;stroke-dasharray:none;stroke-dashoffset:0;marker:none;visibility:visible;display:block;overflow:visible" />
    <path
       d="M 7,1 C 7.666667,1 8.333333,1 9,1 9,3.3333343 9,5.6666671 9,8 8.333333,8 7.666667,8 7,8 7,5.6666671 7,3.3333343 7,1 z"
       id="rect3326"
       style="opacity:0.4;fill:url(#linearGradient3052);fill-opacity:1;fill-rule:nonzero;stroke:none;stroke-width:1;marker:none;visibility:visible;display:inline;overflow:visible;enable-background:accumulate" />
    <path
       d="m 0.4999356,5.5 15.0001274,0"
       id="path3273"
       style="opacity:0.4;fill:none;stroke:url(#linearGradient3009);stroke-width:1px;stroke-linecap:square;stroke-linejoin:miter;stroke-opacity:1;display:inline" />
  </g>
  <path
     style="color:#000000;fill:url(#radialGradient3088);fill-opacity:1;fill-rule:nonzero;stroke:url(#linearGradient3090);stroke-width:0.98542738;stroke-linecap:round;stroke-linejoin:round;stroke-miterlimit:4;stroke-opacity:1;stroke-dasharray:none;stroke-dashoffset:0;marker:none;visibility:visible;display:inline;overflow:visible;enable-background:accumulate"
     d="m 10.5,10.5 0,-2.0072863 3,0 0,2.0072863 2.007286,0 0,3 -2.007286,0 0,2.007286 -3,0 0,-2.007286 -2.0072863,0 0,-3 2.0072863,0 z"
     id="path2262"
     sodipodi:nodetypes="ccccccccccccc" />
</svg>

<?xml version="1.0" encoding="UTF-8" standalone="no"?>
<!-- Created with Inkscape (http://www.inkscape.org/) -->
<svg
   xmlns:svg="http://www.w3.org/2000/svg"
   xmlns="http://www.w3.org/2000/svg"
   xmlns:xlink="http://www.w3.org/1999/xlink"
   version="1.0"
   width="16"
   height="16"
   id="svg2907">
  <defs
     id="defs2909">
    <linearGradient
       id="linearGradient3945">
      <stop
         id="stop3947"
         style="stop-color:#ecf5b6;stop-opacity:1"
         offset="0" />
      <stop
         id="stop3949"
         style="stop-color:#9fba48;stop-opacity:1"
         offset="1" />
    </linearGradient>
    <linearGradient
       x1="24.103895"
       y1="15.168831"
       x2="24.103895"
       y2="32.485161"
       id="linearGradient6161"
       xlink:href="#linearGradient3945"
       gradientUnits="userSpaceOnUse"
       gradientTransform="matrix(0.3280315,0,0,0.3257096,4.4449582,4.5320242)" />
    <linearGradient
       id="linearGradient3054">
      <stop
         id="stop3056"
         style="stop-color:#ffffff;stop-opacity:1"
         offset="0" />
      <stop
         id="stop3058"
         style="stop-color:#ffffff;stop-opacity:1"
         offset="0.29462135" />
      <stop
         id="stop3060"
         style="stop-color:#ffffff;stop-opacity:0.6901961"
         offset="0.43371025" />
      <stop
         id="stop3062"
         style="stop-color:#ffffff;stop-opacity:0"
         offset="1" />
    </linearGradient>
    <linearGradient
       id="linearGradient3032">
      <stop
         id="stop3034"
         style="stop-color:#dac197;stop-opacity:1"
         offset="0" />
      <stop
         id="stop3036"
         style="stop-color:#c1a581;stop-opacity:1"
         offset="0.28352803" />
      <stop
         id="stop3038"
         style="stop-color:#dbc298;stop-opacity:1"
         offset="0.36018604" />
      <stop
         id="stop3040"
         style="stop-color:#a68b60;stop-opacity:1"
         offset="1" />
    </linearGradient>
    <linearGradient
       id="linearGradient3022">
      <stop
         id="stop3024"
         style="stop-color:#c9af8b;stop-opacity:1"
         offset="0" />
      <stop
         id="stop3026"
         style="stop-color:#ad8757;stop-opacity:1"
         offset="0.27982354" />
      <stop
         id="stop3028"
         style="stop-color:#c2a57f;stop-opacity:1"
         offset="0.3566308" />
      <stop
         id="stop3030"
         style="stop-color:#9d7d53;stop-opacity:1"
         offset="1" />
    </linearGradient>
    <linearGradient
       id="linearGradient3275">
      <stop
         id="stop3277"
         style="stop-color:#ffffff;stop-opacity:0"
         offset="0" />
      <stop
         id="stop3283"
         style="stop-color:#ffffff;stop-opacity:1"
         offset="0.245" />
      <stop
         id="stop3285"
         style="stop-color:#ffffff;stop-opacity:1"
         offset="0.77350003" />
      <stop
         id="stop3279"
         style="stop-color:#ffffff;stop-opacity:0"
         offset="1" />
    </linearGradient>
    <linearGradient
       id="linearGradient4559">
      <stop
         id="stop4561"
         style="stop-color:#ffffff;stop-opacity:0"
         offset="0" />
      <stop
         id="stop4563"
         style="stop-color:#ffffff;stop-opacity:0"
         offset="1" />
    </linearGradient>
    <linearGradient
       x1="44.994774"
       y1="17.5"
       x2="3.0052247"
       y2="17.5"
       id="linearGradient3009"
       xlink:href="#linearGradient3275"
       gradientUnits="userSpaceOnUse"
       gradientTransform="matrix(0.3659501,0,0,0.3609705,-0.7828015,-0.81698)"
       spreadMethod="reflect" />
    <linearGradient
       x1="23.451576"
       y1="30.554907"
       x2="43.00663"
       y2="45.934479"
       id="linearGradient3015"
       xlink:href="#linearGradient4559"
       gradientUnits="userSpaceOnUse"
       gradientTransform="matrix(0.4692303,0,0,0.4240274,-3.0041886,-3.4756141)" />
    <linearGradient
       x1="24.822832"
       y1="15.377745"
       x2="24.996943"
       y2="37.27668"
       id="linearGradient3018"
       xlink:href="#linearGradient3032"
       gradientUnits="userSpaceOnUse"
       gradientTransform="matrix(0.4692303,0,0,0.5621256,-3.0041886,-7.0808391)" />
    <linearGradient
       x1="15.464298"
       y1="7.9756851"
       x2="15.464298"
       y2="45.04248"
       id="linearGradient3020"
       xlink:href="#linearGradient3022"
       gradientUnits="userSpaceOnUse"
       gradientTransform="matrix(0.3659501,0,0,0.3609705,-0.7828015,-1.5613271)" />
    <linearGradient
       x1="26"
       y1="22"
       x2="26"
       y2="8"
       id="linearGradient3052"
       xlink:href="#linearGradient3054"
       gradientUnits="userSpaceOnUse"
       gradientTransform="matrix(0.4999997,0,0,0.4999999,-3.999993,-2.9999993)" />
  </defs>
  <g
     id="layer1">
    <path
       d="M 2.5146738,1.5069219 L 13.309367,1.5069219 C 13.939527,1.5069219 14.223116,1.4034849 14.404126,1.8678929 L 15.502611,5.5 L 15.502611,14.023181 C 15.502611,14.583877 15.540281,14.498209 14.910114,14.498209 L 1.0898852,14.498209 C 0.459722,14.498209 0.4973888,14.583869 0.4973888,14.023181 L 0.4973888,5.5 L 1.5958738,1.8678929 C 1.7718342,1.4128669 1.8845105,1.5069219 2.5146738,1.5069219 L 2.5146738,1.5069219 z"
       id="path2488"
       style="fill:url(#linearGradient3018);fill-opacity:1;fill-rule:nonzero;stroke:url(#linearGradient3020);stroke-width:0.99420077;stroke-linecap:round;stroke-linejoin:miter;marker:none;stroke-miterlimit:4;stroke-dasharray:none;stroke-dashoffset:0;stroke-opacity:1;visibility:visible;display:block;overflow:visible" />
    <path
       d="M 2.8577405,1.8725639 L 12.97731,1.8725639 C 13.568061,1.8725639 13.933677,2.0734589 14.181111,2.6255599 L 15.033386,4.9428889 L 15.033386,13.297391 C 15.033386,13.824652 14.733762,14.090113 14.14301,14.090113 L 1.7983422,14.090113 C 1.2075914,14.090113 0.9666196,13.79815 0.9666196,13.270889 L 0.9666196,4.9428889 L 1.7914019,2.5758759 C 1.9563583,2.1479849 2.2669884,1.8725639 2.8577405,1.8725639 L 2.8577405,1.8725639 z"
       id="path2490"
       style="opacity:0.50549454;fill:none;stroke:url(#linearGradient3015);stroke-width:0.74211526;stroke-linecap:butt;stroke-linejoin:miter;marker:none;stroke-miterlimit:4;stroke-dasharray:none;stroke-dashoffset:0;stroke-opacity:1;visibility:visible;display:block;overflow:visible" />
    <path
       d="M 7,1 C 7.666667,1 8.333333,1 9,1 C 9,3.3333343 9,5.6666671 9,8 C 8.333333,8 7.666667,8 7,8 C 7,5.6666671 7,3.3333343 7,1 z"
       id="rect3326"
       style="opacity:0.4;fill:url(#linearGradient3052);fill-opacity:1;fill-rule:nonzero;stroke:none;stroke-width:1;marker:none;visibility:visible;display:inline;overflow:visible;enable-background:accumulate" />
    <path
       d="M 0.4999356,5.5 L 15.500063,5.5"
       id="path3273"
       style="opacity:0.4;fill:none;stroke:url(#linearGradient3009);stroke-width:1px;stroke-linecap:square;stroke-linejoin:miter;stroke-opacity:1;display:inline" />
  </g>
  <path
     d="M 10.499998,10.5 L 10.499998,8.5075322 L 13.499998,8.5075322 L 13.499998,10.5 L 15.492468,10.5 L 15.492468,13.5 L 13.499998,13.5 L 13.499998,15.492468 L 10.499998,15.492468 L 10.499998,13.5 L 8.5075282,13.5 L 8.5075282,10.5 L 10.499998,10.5 z"
     id="path2262"
     style="fill:url(#linearGradient6161);fill-opacity:1;fill-rule:evenodd;stroke:#699536;stroke-width:1.01506352;stroke-linecap:butt;stroke-linejoin:round;stroke-miterlimit:4;stroke-dasharray:none;stroke-opacity:1;display:inline" />
</svg>
